X:1
T:A Donna Bella e crudele
T:Barbara Strozzi
T:Source : Cantate, ariete a 1,2 e 3 voci---Opera terza---Venetia---F.Magni---1654. Editor : André Vierendeels (28/08/16).
T:Notes : Original clefs : C1, F4
T:A Donna Bella e crudele
T:©
T:©
T:©
T:©
T:©
T:©
C:Barbara Strozzi
Z:©
%%score 1 2
L:1/8
Q:1/4=95
M:3/2
K:F
V:1 treble nm="Soprano" snm="S"
V:2 bass nm="MusicXML Part"
V:1
 z4 d8- | d4 ^c8 | f4 e2 d2 c4 | d4 c8 | d4 c4 d4 | B2 A2 B2 c2 B2 A2 | A12 | F4 A4 =B4 | %8
w: Per-|* le,|per- le _ _|ca- re,|ca- r'e pre-|gia _ _ _ _ _|te|dall' o- ce-|
w: Ne-|* ve,|ne- ve _ _|ne- ve,|tu che ca-|de- * * * * *|sti|so- vra'un al-|
w: O-|* ro,|o- ro, _ _|o- ro,|che no- bil|van- * * * * *|to|sei dell' _|
w: San-|* gue,|san- gue, _ _|san- gue,|che su le|ro- * * * * *|se|ha ci- pri-|
w: Stel-|* le,|stel- le, _ _|stel- le,|voi che ne|gl'oc- * * * * *|chi|splen- de- te|
 c2 =B2 c2 d2 _e2 f2 | =B4 A2 B2 c4 | c4 d2 =B2 c2 d2 | c12 | z4 c4 B4 | A4 F4 z4 | z4 f4 _e4 | %15
w: an _ _ _ _ _|_ ve- * *|nu- * * * *|te,|per- che|sta- te,|per- che|
w: pe- * * * * *|* stre _ _|sco- * * * *|glio,|per- che|re- sti,|per- che|
w: In- * * * * *|* di- * co|li- * * * *|do,|per- che|tan- to,|per- che|
w: gna _ _ _ _ _|_ ver- * *|sa- * * * *|ro,|chi ti|po- se,|chi ti|
w: di- * * * * *|* co- * *|ste- * * * *|i,|che vi|roc- chi,|che vi|
 d4 B4 z4 | z4 B4 A4 | G4 G4 z4 | z4 c4 B4 | A4 F4 z4 | z4 F4 E4 | D4 D4 z4 | z4 B4 A4 | G4 G4 z4 | %24
w: sta- te|frà due|lab- bra,|per- che|sta- te|frà due|lab- bra,|frà dua|lab- bra|
w: re- sti|in quel|_ sen,|per- che|re- sti|in quel|_ sen|in quel|_ sen|
w: tan- to|or- n'il|cri- ne,|petr- che|sta- to|on- n'il|cri- ne|or- n'il|cri- ne|
w: po- se,|o- *|stro bel,|chi ti|po- se,|o- *|stro bel,|o- *|stro bel|
w: roc- chi|d'il- lu-|stra- re|che vi|roc- chi,|d'il- lu-|stra- re,|d'il- lu-|stra- re|
 z4 c4 F4 | G12- | G12 | A12 | G12- | G8 A2 B2 | c12- | c8 d2 e2 | f4 F4 G4 | A4 G8 | F12 :: %35
w: che son|mu-||te?|che|_ _ _|||* son _|mu- *|te.|
w: pie- no|d'or-|go-|glio?|pie-||||* no d'or-|go- *|glio.|
w: à vol-|to'in-|si-|do?|à|_ _ _|||* vol- to'in-|si- *|do.|
w: su vol-|to'in-|gra-|to,|su|_ _ _|||* vol- to'in-|gra- *|to.|
w: oc- chi|si|_|rei?|oc-||||* chi si|re- *|i.|
[M:4/4]"^Presto" z2 cc ddBB | ccAA BBGG | AFcA dcBA | G/A/ B2 A A2 cB | AGFE DDf_e | dcBA G2 Gc | %41
w: Gi- te, gi- te, gi- te'à|boc- ca che ri- spon- da, che ri-|spon- da o tor- na- te'in grem- bo'all'|on _ _ _ da o tor-|na- te, o torn- na- te, o tor-|na- te, o tor- na- te in|
w: Tro- va, tro- va, tro- va'un|pet- to piu gen- ti- le, piu gen-|ti- le, o ri- tor- n'all Al- pe|vi- * * * le, o ri-|tor- na, o ri- tor- na, o ri-|tor- na, o ri- tor- n'all _|
w: Van- ne, van- ne, van- ne'a|men,van- * ne a men se- ve- ra|fron- te o ri- tor- na'in se- no'al|mon- * * * te, o ri-|tor- na, o ri- tor- na, o ri-|tor- na, o ri- tor- na in|
w: Cor- ri, cor- ri, cor- ri'a|guan- cie piu se- re- ne, piu se-|re- ne'o al- la Dea tor- na'in le|ve- * * * ne, o al-|la Dea tor- na, tor- na, tor- na-|tor- na, tor- na, tor- na, tor-|
w: gi- te, gi- te, gi- te'à|ci- glia me- no'al- te- re me- no'al|te- re, o tor- na- te'all' al- te|sfe- * * * re, o tor-|na- te, o tor- na- te, o tor-|na- te, o tor- na- te, all'|
 FGAG A B/A/ G A/G/ | F2 ff ddee | ^cAfc d/c/d/e/ d e/d/- | ^c2 fe fedc | BAGF EFGA | %46
w: grem- * bo all' on- * * * da _|_ gi- te, gi- te, gi- te'à|boc- ca che ri- spon- * * * * da _|_ o tor- na- te, o tor-|na- * te in grem- * bo all'|
w: Al- * * pe vi- * * * le _|_ tro- va, tro- va, tro- va'un|pet- to piu gen- ti- * * * * le _|_ o ri- tor- na, o ri-|tor- * na, all' Al- * * pe|
w: se- * no al mon- * * * te, _|_ van- ne, van- ne, van- ne'à|men se- ve- ra fron- * * * * te, _|_ o ri- tor- na, o ri-|tor- * na, in se- * no al|
w: na _ in le ve- * * * ne, _|_ cor- ri, cor- ri, cor- ri'a|guan- cie piu se- re- * * * * ne, _|o al- la De- a, al- la|De- * a, tor- na _ in le|
w: al- * * te sfe- * * * re, _|_ gi- te, gi- te, gi- te'à|ci- glia me- no'al- te- * * * * re, _|_ o tor- na- te, o tor-|na- * te, all al- * * te|
 FG/F/ E F/E/ D4 :| %47
w: on- * * * da. _ _|
w: vi- * * * le. _ _|
w: mon- * * * te. _ _|
w: ve- * * * ne. _ _|
w: sfe- * * * re. _ _|
V:2
"^BC" D,12 | A,,12 | D,8 A,4 | B,8 A,4 | B,4 A,4 B,4 |"^BC" G,12 | F,4 A,4 C4 | F,8 D,4 | %8
 C,8 F,,4 | G,,8 F,4 |"^BC" G,8 G,,4 | C,4 C4 B,4 | A,8 G,4 | F,4 F,4 _E,4 | D,8 C,4 | %15
"^BC" B,,4 B,,4 A,,4 | G,,4 G,4 F,4 | C,4 C4 B,4 | A,8 G,4 | F,4 F,4 E,4 |"^BC" D,8 C,4 | %21
 B,,4 B,4 A,4 | G,8 F,4 | C,4 C4 B,4 | A,12 |"^BC" z4 A,4 B,4 | C12 | F,8 F,4 | C,4 C4 B,4 | %29
 A,8 G,4 |"^BC" F,8 E,4 | D,8 C,4 | B,,12 | C,12 | F,,12 ::[M:4/4]"^BC" z2 F,2 B,2 G,2 | %36
 E,2 F,2 D,2 E,2 | F,4 B,4 | C4 F,4 | F,E,D,C, B,,4 | B,A,G,F, E,D,C,B,, |"^BC" A,,2 B,,2 C,4 | %42
 F,,2 F,2 B,2 G,2 | A,4 B,4 |"^BC" A,4 DCB,A, | G,F,E,D, A,,2 G,,2 | A,,4 D,4 :| %47

